svg/ory-logo.svg

<?xml version="1.0" encoding="UTF-8"?>
<svg xmlns="http://www.w3.org/2000/svg" xmlns:xlink="http://www.w3.org/1999/xlink" width="69.530998" height="32" viewBox="0 0 69.530998 32">
<path fill-rule="nonzero" fill="rgb(38.431373%, 45.490196%, 95.294118%)" fill-opacity="1" d="M 8.125 31.941406 C 8.035156 32.019531 7.902344 32.019531 7.8125 31.941406 L 6.328125 31.160156 L 0.390625 28.113281 C 0.15625 28.035156 0 27.722656 0 27.410156 L 0 25.066406 C 0 24.753906 0.3125 24.597656 0.546875 24.753906 L 7.96875 28.582031 L 15.394531 24.753906 C 15.628906 24.597656 15.941406 24.832031 15.941406 25.066406 L 15.941406 27.410156 C 15.941406 27.695312 15.792969 27.960938 15.550781 28.113281 L 11.410156 30.300781 L 9.691406 31.160156 Z M 7.8125 0.0585938 C 7.902344 -0.0117188 8.035156 -0.0117188 8.125 0.0585938 L 9.613281 0.839844 L 15.472656 3.886719 C 15.714844 4.039062 15.863281 4.304688 15.863281 4.589844 L 15.863281 6.933594 C 15.863281 7.246094 15.550781 7.402344 15.316406 7.246094 L 7.890625 3.417969 L 0.546875 7.246094 C 0.3125 7.402344 0 7.167969 0 6.933594 L 0 4.589844 C 0 4.304688 0.148438 4.039062 0.390625 3.886719 L 4.53125 1.699219 Z M 7.96875 21.078125 C 5.234375 21.078125 3.046875 18.8125 3.046875 16 C 3.046875 13.1875 5.234375 10.921875 7.96875 10.921875 C 10.707031 10.921875 12.894531 13.1875 12.894531 16 C 12.894531 18.8125 10.707031 21.078125 7.96875 21.078125 M 7.96875 7.792969 C 3.59375 7.792969 0 11.46875 0 16 C 0 20.53125 3.59375 24.203125 7.96875 24.203125 C 12.347656 24.203125 15.941406 20.53125 15.941406 16 C 15.941406 11.46875 12.347656 7.792969 7.96875 7.792969 M 31.648438 21.078125 C 28.914062 21.078125 26.726562 18.8125 26.726562 16 C 26.726562 13.1875 28.914062 10.921875 31.648438 10.921875 C 34.382812 10.921875 36.570312 13.1875 36.570312 16 C 36.570312 18.8125 34.382812 21.078125 31.648438 21.078125 M 31.648438 7.792969 C 27.273438 7.792969 23.675781 11.46875 23.675781 16 C 23.675781 20.53125 27.273438 24.203125 31.648438 24.203125 C 36.023438 24.203125 39.617188 20.53125 39.617188 16 C 39.617188 11.46875 36.101562 7.792969 31.648438 7.792969 M 49.933594 14.828125 L 49.464844 14.828125 L 49.386719 14.75 L 47.042969 10.921875 L 49.855469 10.921875 C 50.871094 10.921875 51.730469 11.78125 51.730469 12.875 C 51.730469 13.96875 51.027344 14.828125 49.933594 14.828125 M 51.261719 17.796875 C 53.371094 17.171875 54.855469 15.296875 54.855469 12.953125 L 54.855469 12.796875 C 54.855469 9.984375 52.667969 7.792969 49.933594 7.792969 L 43.839844 7.792969 C 43.605469 7.792969 43.449219 7.949219 43.449219 8.183594 L 43.449219 10.6875 C 43.449219 10.765625 43.449219 10.84375 43.527344 10.921875 L 45.871094 14.90625 L 43.839844 14.90625 C 43.605469 14.90625 43.449219 15.0625 43.449219 15.296875 L 43.449219 23.890625 C 43.449219 24.125 43.605469 24.28125 43.839844 24.28125 L 46.105469 24.28125 C 46.339844 24.28125 46.496094 24.125 46.496094 23.890625 L 46.496094 17.953125 L 47.746094 17.953125 L 51.261719 23.8125 C 51.417969 24.046875 51.652344 24.203125 51.886719 24.203125 L 54.386719 24.203125 C 54.699219 24.203125 54.855469 23.890625 54.699219 23.578125 Z M 69.46875 8.34375 L 62.046875 23.734375 C 61.96875 24.046875 61.734375 24.203125 61.421875 24.203125 L 59.15625 24.203125 C 58.84375 24.203125 58.6875 23.890625 58.84375 23.65625 L 62.515625 16 L 58.84375 8.34375 C 58.6875 8.105469 58.921875 7.792969 59.15625 7.792969 L 61.421875 7.792969 C 61.734375 7.792969 61.96875 7.949219 62.125 8.261719 L 64.15625 12.5625 L 66.1875 8.261719 C 66.34375 8.027344 66.578125 7.792969 66.890625 7.792969 L 69.15625 7.792969 C 69.46875 7.792969 69.625 8.105469 69.46875 8.34375 "/>
</svg>

<svg role="img" viewBox="0 0 69.531 32" xmlns="http://www.w3.org/2000/svg"><path d="M8.125 31.941a.24.24 0 0 1-.312 0l-1.485-.78-5.937-3.048C.156 28.035 0 27.723 0 27.41v-2.344c0-.312.313-.468.547-.312l7.422 3.828 7.426-3.828c.234-.156.546.078.546.312v2.344c0 .285-.148.55-.39.703l-4.14 2.188-1.72.86ZM7.813.06a.24.24 0 0 1 .312 0l1.488.78 5.86 3.048c.242.152.39.418.39.703v2.344c0 .312-.312.468-.547.312L7.891 3.418.547 7.246C.312 7.402 0 7.168 0 6.934V4.59c0-.285.148-.55.39-.703l4.141-2.188Zm.156 21.02c-2.735 0-4.922-2.267-4.922-5.079s2.187-5.078 4.922-5.078c2.738 0 4.926 2.265 4.926 5.078s-2.188 5.078-4.926 5.078m0-13.285C3.594 7.793 0 11.469 0 16s3.594 8.203 7.969 8.203c4.379 0 7.972-3.672 7.972-8.203S12.348 7.793 7.97 7.793m23.68 13.285c-2.735 0-4.922-2.265-4.922-5.078 0-2.812 2.187-5.078 4.921-5.078S36.57 13.187 36.57 16s-2.187 5.078-4.922 5.078m0-13.285c-4.375 0-7.972 3.676-7.972 8.207s3.597 8.203 7.972 8.203 7.97-3.672 7.97-8.203-3.516-8.207-7.97-8.207m18.286 7.035h-.47l-.077-.078-2.344-3.828h2.812c1.016 0 1.875.86 1.875 1.953 0 1.094-.703 1.953-1.796 1.953m1.328 2.969c2.11-.625 3.593-2.5 3.593-4.844v-.156c0-2.813-2.187-5.004-4.921-5.004H43.84c-.235 0-.39.156-.39.39v2.505c0 .078 0 .156.077.234l2.344 3.984H43.84c-.235 0-.39.156-.39.39v8.595c0 .234.155.39.39.39h2.265c.235 0 .391-.156.391-.39v-5.938h1.25l3.516 5.86c.156.234.39.39.625.39h2.5c.312 0 .468-.312.312-.625Zm18.207-9.453-7.422 15.39c-.078.313-.313.47-.625.47h-2.266c-.312 0-.468-.313-.312-.548L62.516 16l-3.672-7.656c-.157-.239.078-.551.312-.551h2.266q.468 0 .703.469l2.031 4.3 2.031-4.3c.157-.235.391-.469.704-.469h2.265c.313 0 .469.312.313.55" fill="rgb(38.431373%, 45.490196%, 95.294118%)"/></svg>
